X: 13845
T: Four Up
R: hornpipe
M: 4/4
K: Eminor
|:"Em" E2 EF G2 GA|"G" BAGB- BABG|"D" AFAB AGFA|"Em" G2 F2 EFGF|
"Em" E2 EF G2 GA|"G" BAGB- BABG|"D" AFAB AGFA|"G" G2 "B" F2 "Em" E4:|
|:"C" cccc- cBAc|"G" B2 Bc BA G2|"D" A2 A2 AG F2|"Em" GFGA "G" B4|
"C" cccc- cBAc|"G" B2 Bc BA G2|"D" AA A2 AG F2|"Em" GF"B"GA "Em" E4:|

